X: 40569
T: Tommy Tourish's
R: jig
M: 6/8
K: Adorian
|:eAA cAA|eAA Bcd|eAA cAc|dBG Bcd|
eAA cAA|eAA Bcd|faf ged|dBG Bcd:|
|:c2c cde|d2d efg|c2c edc|ded dBG|
~c3 GcE|c2d efg|faf ged|dBG Bcd:|

